packages/dnb-eufemia/assets/icons/padlock.svg

<svg width="16" height="16" viewBox="0 0 16 16" fill="none" xmlns="http://www.w3.org/2000/svg">
<path d="M4.66672 6.6V4.26667C4.66672 3.40029 5.01088 2.5694 5.6235 1.95678C6.23612 1.34417 7.06701 1 7.93338 1C8.79976 1 9.63065 1.34417 10.2433 1.95678C10.8559 2.5694 11.2 3.40029 11.2 4.26667V6.6M7.93338 9.86667V11.7333M3.73338 6.6H12.1334C12.6488 6.6 13.0667 7.01787 13.0667 7.53333V14.0667C13.0667 14.5821 12.6488 15 12.1334 15H3.73338C3.21792 15 2.80005 14.5821 2.80005 14.0667V7.53333C2.80005 7.01787 3.21792 6.6 3.73338 6.6Z" stroke="black" stroke-width="1.5" stroke-linecap="round" stroke-linejoin="round"/>
</svg>

<svg width="16" height="16" viewBox="0 0 16 16" fill="none" xmlns="http://www.w3.org/2000/svg"><path d="M4.667 6.6V4.267a3.267 3.267 0 0 1 6.533 0V6.6M7.933 9.867v1.866M3.733 6.6h8.4c.516 0 .934.418.934.933v6.534a.933.933 0 0 1-.934.933h-8.4a.933.933 0 0 1-.933-.933V7.533c0-.515.418-.933.933-.933Z" stroke="#000" stroke-width="1.5" stroke-linecap="round" stroke-linejoin="round"/></svg>
